icons/shield_us_mn_3.svg

<svg width="25" height="20" xmlns="http://www.w3.org/2000/svg">
 <rect width="25" height="20" rx="2" ry="2" style="fill:#ffcd00"/>
 <rect style="fill:#003f87;fill-rule:evenodd" width="23" height="14" x="1" y="5" rx="1" ry="1"/>
 <path d="M 1,0.7493356 C 1.042412,1.4330858 1.2469834,2.1220461 1.267617,2.796891 1.2715938,2.9269559 1.1340571,2.998667 1.133835,3.103067 1.133587,3.2196318 1.286747,3.2455721 1.286747,3.332699 V 4.5 H 3.829012 C 3.8922445,4.2063981 3.6708662,4.0566445 3.465809,3.9259274 3.1199165,3.7054326 3.026137,3.3837837 3.026137,3.1222114 2.9507241,2.9549717 3.2044943,2.861259 3.2746416,2.7586274 V 2.3950419 C 3.3702539,2.2993984 3.480241,2.2162035 3.5613679,2.1080009 3.8143298,1.7706142 4.1532597,1.6005736 4.4979999,1.3999675 4.3789317,1.4280763 4.3046492,1.3727934 4.2686053,1.3425596 h -0.305812 c -0.014812,-0.043827 -0.070185,-0.056188 -0.095613,-0.076544 -0.049702,0.037222 -0.083091,0.084912 -0.133822,0.114816 -0.043147,0.025433 -0.091077,0.033701 -0.133808,0.019136 -0.030246,-0.010309 -0.057108,-0.017033 -0.07643,-0.038272 -0.015605,-0.017152 -0.011812,-0.03542 -0.019144,-0.057408 -0.045297,0.00926 -0.096851,-0.00727 -0.114664,-0.038272 -0.023679,-0.041212 -0.051984,-0.06922 -0.076469,-0.076549 -0.075134,-0.022489 -0.017004,0.086199 -0.057352,0.09568 -0.069176,0.016254 -0.064614,-0.090549 -0.095586,-0.133952 h -0.076483 v -0.076544 c 0,0 -0.1237542,-0.063552 -0.191148,-0.076544 -0.025029,-0.004825 -0.07647,0 -0.07647,0 -0.048668,0 -0.060494,0.0818918 -0.09556,0.09568 -0.042445,0.016689 -0.088928,0.012715 -0.133833,0.019136 -0.022382,-0.031897 -0.037373,-0.06235 -0.057352,-0.09568 C 2.416041,1.0020209 2.346501,0.98629609 2.2423163,0.9789703 2.2011099,0.97607286 2.1984663,0.9350776 2.1849643,0.9215623 L 2.1085082,0.5771127 C 2.095022,0.51635487 2.0256152,0.5076729 1.9557442,0.5005677 v 0.2487682 z" style="fill:#003f87;fill-opacity:1;fill-rule:evenodd;stroke:none;stroke-width:.0319955"/>
</svg>

<svg width="25" height="20" xmlns="http://www.w3.org/2000/svg"><rect width="25" height="20" rx="2" ry="2" style="fill:#ffcd00"/><rect style="fill:#003f87;fill-rule:evenodd" width="23" height="14" x="1" y="5" rx="1" ry="1"/><path d="M1 .75c.042.683.247 1.372.268 2.047.004.13-.134.202-.134.306 0 .117.153.143.153.23V4.5h2.542c.063-.294-.158-.443-.363-.574a.918.918 0 0 1-.44-.804c-.075-.167.178-.26.249-.363v-.364c.095-.096.205-.179.286-.287.253-.337.592-.507.937-.708a.248.248 0 0 1-.23-.057h-.305c-.015-.044-.07-.057-.096-.077-.05.037-.083.085-.134.115A.161.161 0 0 1 3.6 1.4c-.03-.01-.058-.017-.077-.038-.015-.017-.012-.036-.019-.058-.045.01-.097-.007-.115-.038-.023-.041-.052-.07-.076-.077-.075-.022-.017.087-.058.096-.069.016-.064-.09-.095-.134h-.077v-.076s-.123-.064-.19-.077c-.026-.005-.077 0-.077 0-.049 0-.06.082-.096.096-.042.016-.089.013-.134.019-.022-.032-.037-.062-.057-.096-.113-.015-.182-.03-.287-.038-.04-.003-.044-.044-.057-.057L2.109.577c-.014-.06-.083-.07-.153-.076v.248z" style="fill:#003f87;fill-opacity:1;fill-rule:evenodd;stroke:none;stroke-width:.0319955"/></svg>
